X:3454
T:Corriechoille's Farewell
M:2/4
L:1/8
Q:1/4=110
K:D
% lydian/major/mixolydian pentatonic, D-mode GC-gap
e|A>B Ad|e>d BA|d>e fa|fe ef|A>B Ad|e>d BA|d>e fa|fd d:|
f|a>f df|e>d BA|d>e fa|fe ef|A>B Ad|e>d BA|d>e fa|fd d:|


